X:1
T: Annie is my Darling
C:
R:Reel
I:speed 232
Q:232
K:A
M:4/4
L:1/8
|:c|A2AE CE AB|cd Bc AF FA|GA AE CE Ae|cA ec B2 Ac|
A2AE CE AB|cd Bc AF FA|GA AE CE Ae|cA ec B2Ad|
cee2 cff2|ec cB AF Fd|ce e2 ce fg|ag fe f^e fg|
ag fe fg af|ec dB cA FA|GA EA CE A,e|cA ec B2A:|
